X: 1
N: Balquidder Strathspey
N: 8 x 32S 3C (RSCDS Bk 24)
P: Mr. Oswald of Auchencruive
R: strathspey
C: Robert Mackintosh
C: arr. T. Traub 6-14-99
M: 4/4
L: 1/8
K: G
|: D|"G"G>A B<d B>A B<g|"G"dG "D"F<AA>B|"G"G/A/B BABg|"D"dG "G"D<G G :|
f|"G"g>a b<g "D"f<da<f|"G"g/f/g/a/ b>g "D"f<aa>f|"Em"g>a b<g "D"f<da<f|"C"g<e"D"d>c "G"B<GG>f|
"G"g>a b<g "D"f<da<f|"Em"g/f/g/a/ b>g "D"f<aa>f|"G"ga g |]
